symbols/web/web_asset_off/materialsymbolsrounded/web_asset_off_wght500grad200_24px.svg

<svg xmlns="http://www.w3.org/2000/svg" height="24" width="24"><path d="m22.65 19.2-2.6-2.6V8.125h-8.5L6.6 3.15h13.45q1.175 0 2 .837.825.838.825 1.988v12.05q0 .3-.063.587-.062.288-.162.588Zm-2.875 3.825-2.2-2.175H3.95q-1.175 0-2-.837-.825-.838-.825-1.988V5.975q0-1.075.725-1.888.725-.812 1.8-.912V6.9L1.1 4.35q-.4-.375-.4-.925t.4-.95q.375-.375.925-.375t.925.375l18.7 18.7q.4.375.4.912 0 .538-.4.938-.4.375-.938.375-.537 0-.937-.375Zm-15.825-5h10.8l-9.9-9.9h-.9v9.9Z"/></svg>

<svg xmlns="http://www.w3.org/2000/svg" height="24" width="24"><path d="M19.775 23.025 17.575 20.85H3.95Q2.775 20.85 1.95 20.013Q1.125 19.175 1.125 18.025V5.975Q1.125 5.65 1.2 5.325Q1.275 5 1.425 4.7L1.1 4.35Q0.7 3.975 0.7 3.425Q0.7 2.875 1.1 2.475Q1.475 2.1 2.025 2.1Q2.575 2.1 2.975 2.475L21.65 21.175Q22.025 21.55 22.025 22.087Q22.025 22.625 21.65 23.025Q21.25 23.4 20.712 23.4Q20.175 23.4 19.775 23.025ZM3.95 18.025H14.75L4.85 8.125H3.95V18.025Q3.95 18.025 3.95 18.025Q3.95 18.025 3.95 18.025ZM22.65 19.2 20.05 16.6V8.125H11.55L6.6 3.15H20.05Q21.225 3.15 22.05 3.987Q22.875 4.825 22.875 5.975V18.025Q22.875 18.325 22.812 18.612Q22.75 18.9 22.65 19.2Z"/></svg>
